pub/sources/address-svgrepo-com.svg

<?xml version="1.0" encoding="UTF-8"?>
<svg xmlns="http://www.w3.org/2000/svg" xmlns:xlink="http://www.w3.org/1999/xlink" width="50px" height="px" viewBox="0 0 50 50" version="1.1">
<g id="surface1">
<path style=" stroke:none;fill-rule:nonzero;fill:rgb(90.588236%,23.137255%,21.568628%);fill-opacity:1;" d="M 29.671875 3.132812 C 24.648438 3.132812 20.578125 7.207031 20.578125 12.230469 C 20.578125 13.695312 21.351562 15.484375 22.445312 17.273438 C 23.1875 18.484375 24.074219 19.703125 24.96875 20.820312 C 27.296875 23.730469 29.671875 26.023438 29.671875 26.023438 C 29.671875 26.023438 30.539062 25.191406 31.738281 23.886719 C 32.421875 23.140625 33.21875 22.246094 34.019531 21.257812 C 36.359375 18.394531 38.769531 14.8125 38.769531 12.230469 C 38.769531 7.207031 34.695312 3.132812 29.671875 3.132812 Z M 33.472656 20.382812 C 33.082031 20.867188 32.6875 21.335938 32.304688 21.777344 C 31.925781 22.21875 31.554688 22.632812 31.207031 23.011719 C 30.59375 23.679688 30.0625 24.238281 29.671875 24.640625 C 29.0625 24.015625 28.097656 23.003906 27.046875 21.78125 C 26.664062 21.34375 26.273438 20.878906 25.882812 20.390625 C 25.226562 19.574219 24.640625 18.792969 24.121094 18.046875 C 23.628906 17.335938 23.203125 16.660156 22.847656 16.019531 C 21.988281 14.476562 21.546875 13.199219 21.546875 12.222656 C 21.546875 10.054688 22.394531 8.011719 23.925781 6.480469 C 25.460938 4.945312 27.5 4.101562 29.667969 4.101562 C 31.835938 4.101562 33.875 4.945312 35.410156 6.480469 C 36.945312 8.011719 37.789062 10.054688 37.789062 12.222656 C 37.789062 13.199219 37.355469 14.472656 36.496094 16.011719 C 35.773438 17.324219 34.757812 18.789062 33.472656 20.382812 Z M 33.472656 20.382812 "/>
<path style=" stroke:none;fill-rule:nonzero;fill:rgb(90.588236%,23.137255%,21.568628%);fill-opacity:1;" d="M 29.671875 8.941406 C 31.476562 8.941406 32.945312 10.410156 32.945312 12.210938 C 32.945312 14.015625 31.476562 15.484375 29.671875 15.484375 C 27.871094 15.484375 26.402344 14.015625 26.402344 12.210938 C 26.402344 10.410156 27.867188 8.941406 29.671875 8.941406 M 29.671875 7.964844 C 27.328125 7.964844 25.425781 9.863281 25.425781 12.210938 C 25.425781 14.554688 27.324219 16.460938 29.671875 16.460938 C 32.015625 16.460938 33.921875 14.5625 33.921875 12.210938 C 33.921875 9.863281 32.015625 7.964844 29.671875 7.964844 Z M 29.671875 7.964844 "/>
<path style=" stroke:none;fill-rule:nonzero;fill:rgb(22.352941%,22.352941%,22.745098%);fill-opacity:1;" d="M 45.308594 17.207031 L 35.75 20.640625 L 34.015625 21.265625 C 33.210938 22.246094 32.417969 23.144531 31.734375 23.890625 L 31.824219 23.9375 L 31.824219 44.277344 L 31.207031 43.988281 L 28.945312 42.933594 L 18.585938 38.105469 L 18.164062 37.910156 L 18.164062 17.648438 L 24.96875 20.820312 C 24.070312 19.695312 23.1875 18.484375 22.445312 17.273438 L 18.65625 15.507812 L 18.476562 15.425781 L 18.054688 15.230469 L 17.675781 15.046875 L 17.570312 15.085938 L 3.125 20.277344 L 3.125 45.269531 L 17.675781 40.039062 L 28.945312 45.292969 L 31.207031 46.347656 L 32.3125 46.867188 L 46.875 41.636719 L 46.875 16.644531 Z M 17.1875 37.933594 L 16.949219 38.023438 L 5.273438 42.21875 L 5.273438 21.789062 L 17.1875 17.503906 Z M 44.726562 40.125 L 32.804688 44.410156 L 32.804688 23.980469 L 33.050781 23.890625 L 44.726562 19.695312 Z M 44.726562 40.125 "/>
</g>
</svg>

<svg xmlns="http://www.w3.org/2000/svg" width="50" height="px" viewBox="0 0 50 50"><path d="M29.672 3.133c-5.024 0-9.094 4.074-9.094 9.097 0 1.465.774 3.254 1.867 5.043.742 1.211 1.63 2.43 2.524 3.547a61.589 61.589 0 004.703 5.203s.867-.832 2.066-2.136c.684-.746 1.48-1.64 2.282-2.63 2.34-2.862 4.75-6.445 4.75-9.027a9.099 9.099 0 00-9.098-9.097zm3.8 17.25c-.39.484-.785.953-1.167 1.394-.38.442-.75.856-1.098 1.235a81.79 81.79 0 01-1.535 1.629 62.28 62.28 0 01-2.625-2.86 41.199 41.199 0 01-1.164-1.39 42.703 42.703 0 01-1.762-2.344 24.35 24.35 0 01-1.273-2.027c-.86-1.543-1.301-2.82-1.301-3.797a8.08 8.08 0 012.379-5.743 8.067 8.067 0 015.742-2.378c2.168 0 4.207.843 5.742 2.378a8.06 8.06 0 012.38 5.743c0 .976-.435 2.25-1.294 3.789-.723 1.312-1.738 2.777-3.023 4.37zm0 0" fill="#e73b37"/><path d="M29.672 8.941a3.277 3.277 0 013.273 3.27 3.278 3.278 0 01-3.273 3.273c-1.8 0-3.27-1.468-3.27-3.273 0-1.8 1.465-3.27 3.27-3.27m0-.976a4.249 4.249 0 10.005 8.495 4.249 4.249 0 00-.005-8.495zm0 0" fill="#e73b37"/><path d="M45.309 17.207l-9.559 3.434-1.734.625a64.486 64.486 0 01-2.282 2.625l.09.047v20.34l-.617-.29-2.262-1.054-10.36-4.829-.42-.195V17.648l6.804 3.172c-.899-1.125-1.782-2.336-2.524-3.547l-3.789-1.765-.18-.082-.421-.196-.38-.183-.105.039-14.445 5.191V45.27l14.55-5.23 11.27 5.253 2.262 1.055 1.105.52 14.563-5.231V16.645zM17.188 37.934l-.239.09-11.676 4.195v-20.43l11.915-4.285zm27.539 2.191L32.805 44.41V23.98l.246-.09 11.676-4.195zm0 0" fill="#39393a"/></svg>
